X: 45
T: The Monday Morning Reel
T: Monday Morning Reel
M:C
L:1/8
K:F
fedc AGFD| B,CDE FD (3DDD| ECEG c2 (3def| egce gceg|
fedc AGFD| B,CDE FD (3DDD| ECEG c2 (3def| egce d4 :|
|: af (3gfe fedc| Adea Adea| ge (3fed edcd| egce gceg|
af (3gfe fedc| Adea Adea| bagf (3def gf| egce d4 :|

%%sep 2 1 500

